X: 76
T:La crozada (version Floutard/Blaja)
S:Repertori 55
M:3/8
L:1/16
K:C
g4 ef| g4 ef| g2f2e2|d6|\
d2e2f2|g2a2g2|f2e2d2|1e2c4:|2c4c2||
|:def2g2|d4g2|agf2e2|d2e2c2|\
def2g2|d4g2|agf2e2|d4c2:|
|:def2g2|c4d2|edc2B2|cde2c2|\
def2g2|c4d2|edc2B2|c6:|
